icons/Yaru-dark/22x22/panel/audio-output-none-panel.svg

<svg version="1.1" viewBox="0 0 22 22" xmlns="http://www.w3.org/2000/svg">
 <path d="m11 4-3.5 4h-2.6309s-0.86914 0.89395-0.86914 3.002c0 2.109 0.86914 2.998 0.86914 2.998h2.6309l3.5 4v-14zm1.707 3.9941-0.70703 0.70703 0.39844 0.40039 1.9004 1.8984-1.9004 1.9004-0.39648 0.39844 0.70508 0.70703 2.2988-2.2988 1.9004 1.9004 0.39648 0.39844 0.70703-0.70703-2.2969-2.2988 1.9004-1.9004 0.39648-0.39844-0.70508-0.70508-0.40039 0.39844-1.8984 1.8984-2.2988-2.2988z" fill="#fff" stroke-width="1.0611" style="font-feature-settings:normal;font-variant-alternates:normal;font-variant-caps:normal;font-variant-ligatures:normal;font-variant-numeric:normal;font-variant-position:normal;isolation:auto;mix-blend-mode:normal;shape-padding:0;text-decoration-color:#000000;text-decoration-line:none;text-decoration-style:solid;text-indent:0;text-orientation:mixed;text-transform:none"/>
</svg>

<svg viewBox="0 0 22 22" xmlns="http://www.w3.org/2000/svg"><path d="M11 4 7.5 8H4.87S4 8.894 4 11.002C4 13.111 4.87 14 4.87 14H7.5l3.5 4V4zm1.707 3.994L12 8.701l.398.4 1.9 1.899-1.9 1.9-.396.399.705.707 2.299-2.299 1.9 1.9.397.399.707-.707L15.713 11l1.9-1.9.397-.399-.705-.705-.4.399-1.9 1.898-2.298-2.299z" fill="#fff" style="font-feature-settings:normal;font-variant-alternates:normal;font-variant-caps:normal;font-variant-ligatures:normal;font-variant-numeric:normal;font-variant-position:normal;isolation:auto;mix-blend-mode:normal;shape-padding:0;text-decoration-color:#000;text-decoration-line:none;text-decoration-style:solid;text-indent:0;text-orientation:mixed;text-transform:none"/></svg>
